public/svgs/icons/pin.svg

<svg fill="none" height="32" viewBox="0 0 26 32" width="26" xmlns="http://www.w3.org/2000/svg"><path d="m21.9474 3.76553c-1.1931-1.19515-2.6102-2.14332-4.1701-2.790252-1.56-.646928-3.2321-.97991667-4.9209-.97991667s-3.36094.33298867-4.92087.97991667c-1.55993.646932-2.97698 1.595102-4.17008 2.790252-2.33553 2.33269-3.6834176 5.47494-3.76405399 8.77487-.08063641 3.3 1.11216399 6.5043 3.33097399 8.9483l9.54243 10.5113 9.5423-10.5113c2.214-2.4487 3.4004-5.6556 3.3129-8.9556-.0874-3.30003-1.442-6.43968-3.7826-8.76757zm-9.091 11.83257c-1.0428-.001-2.0426-.4159-2.7797-1.1537-.73701-.7377-1.15103-1.7379-1.15103-2.7807.00097-1.0422.41542-2.04144 1.15233-2.77838.737-.73695 1.7362-1.15138 2.7784-1.15236 1.0425 0 2.0423.41413 2.7794 1.15128.7372.73716 1.1513 1.73696 1.1513 2.77946.0005.5165-.1008 1.028-.2981 1.5053-.1973.4774-.4868.9111-.8519 1.2765-.365.3654-.7985.6553-1.2756.853-.4772.1978-.9886.2996-1.5051.2996z" fill="#aa7a4e"/></svg>

<svg width="26" height="32" viewBox="0 0 26 32" fill="none" xmlns="http://www.w3.org/2000/svg">
<path d="M21.9474 3.76553C20.7543 2.57038 19.3372 1.62221 17.7773 0.975278C16.2173 0.32835 14.5452 -0.00463867 12.8564 -0.00463867C11.1676 -0.00463867 9.49546 0.32835 7.93553 0.975278C6.3756 1.62221 4.95855 2.57038 3.76545 3.76553C1.42992 6.09822 0.0820324 9.24047 0.00139601 12.5404C-0.0792404 15.8404 1.11356 19.0447 3.33237 21.4887L12.8748 32L22.4171 21.4887C24.6311 19.04 25.8175 15.8331 25.73 12.5331C25.6426 9.23307 24.288 6.09342 21.9474 3.76553ZM12.8564 15.5981C11.8136 15.5971 10.8138 15.1822 10.0767 14.4444C9.33969 13.7067 8.92567 12.7065 8.92567 11.6637C8.92664 10.6215 9.34109 9.62226 10.078 8.88532C10.815 8.14837 11.8142 7.73394 12.8564 7.73296C13.8989 7.73296 14.8987 8.14709 15.6358 8.88424C16.373 9.6214 16.7871 10.6212 16.7871 11.6637C16.7876 12.1802 16.6863 12.6917 16.489 13.169C16.2917 13.6464 16.0022 14.0801 15.6371 14.4455C15.2721 14.8109 14.8386 15.1008 14.3615 15.2985C13.8843 15.4963 13.3729 15.5981 12.8564 15.5981Z" fill="#AA7A4E"/>
</svg>
